X: 147
T: 147. Wenn ich in Angst und Not
N: Derived from chor147.krn
C: Johann Sebastian Bach
%%abc-version 2.0
%%abcx-abcm2ps-target-version 5.9.1 (29 Sep 2008)
%%abc-creator hum2abc beta
%%abcx-conversion-date 2019/03/11 17:28:18
%%abc-edited-by Craig Stuart Sapp
%%humdrum-veritas 2662251477
%%humdrum-veritas-data 1352846579
%%
%%barnumbers 0
L: 1/4
M: C
%%staves [1 2 3 4]
V: 1 clef=treble
V: 2 clef=treble
V: 3 clef=treble-8
V: 4 clef=bass
K: Eb
[V:1] E [I:setbarnb 1]| 
[V:2] B, | 
[V:3] G/A/ | 
[V:4] E,/F,/ | 
[V:1] BBc=d | 
[V:2] EEEF | 
[V:3] B/c/_dc/B/A | 
[V:4] G,G,A,/G,/F, | 
[V:1] !fermata!e2zd | 
[V:2] !fermata!G2xF | 
[V:3] !fermata!B2xB- | 
[V:4] !fermata!E,2zB,, | 
[V:1] edcc | 
[V:2] cB/D/GF/E/ | 
[V:3] B/=A/B-B=A | 
[V:4] C,G,E,F, | 
[V:1] !fermata!B2zB | 
[V:2] !fermata!D2xE | 
[V:3] !fermata!F2xB | 
[V:4] !fermata!B,,2zG,, | 
[V:1] cBAG | 
[V:2] EDE/B,/B, | 
[V:3] B/A/- A/G/- G/F/- F/E/ | 
[V:4] A,,B,,C,/D,/E, | 
[V:1] !fermata!F2zG | 
[V:2] !fermata!B,2xD- | 
[V:3] !fermata!D2xG | 
[V:4] !fermata!B,,2z=B,, | 
[V:1] EFG/A/B | 
[V:2] D/C/- C/_B,/B,E | 
[V:3] GFEB | 
[V:4] C,D,E,G,, | 
[V:1] A2!fermata!Gd | 
[V:2] E/F//E//D!fermata!EF | 
[V:3] cB!fermata!Bd | 
[V:4] F,,B,,!fermata!E,,B,- | 
[V:1] edcc | 
[V:2] G/F/FGF/E/ | 
[V:3] cBB=A | 
[V:4] B,/=A,/B,E,F, | 
[V:1] !fermata!B2ze | 
[V:2] !fermata!D2xG | 
[V:3] !fermata!F2xc- | 
[V:4] !fermata!B,,2zC, | 
[V:1] dcBc | 
[V:2] GEEE | 
[V:3] c/B/- B/A/- A/G/G | 
[V:4] G,A,E,C, | 
[V:1] BAG/A/B | 
[V:2] F/G/- G/F/- F/_E/E | 
[V:3] d/c/ccB | 
[V:4] D,/=E,/F,C,G,, | 
[V:1] AGF2 | 
[V:2] E2ED | 
[V:3] _E/F/G/E/cB/A/ | 
[V:4] C,B,,A,,B,, | 
[V:1] !fermata!E3 |]  
[V:2] !fermata!B,3 |]  
[V:3] !fermata!G3 |]  
[V:4] !fermata!E,,3 |]  



